SVG_Azure_All/API Management Identity.svg

<?xml version="1.0" encoding="UTF-8" standalone="no"?>
<!-- Generated by Microsoft Visio, SVG Export API Management Identity.svg Page-1 -->

<svg
   xmlns:dc="http://purl.org/dc/elements/1.1/"
   xmlns:cc="http://creativecommons.org/ns#"
   xmlns:rdf="http://www.w3.org/1999/02/22-rdf-syntax-ns#"
   xmlns:svg="http://www.w3.org/2000/svg"
   xmlns="http://www.w3.org/2000/svg"
   xmlns:sodipodi="http://sodipodi.sourceforge.net/DTD/sodipodi-0.dtd"
   xmlns:inkscape="http://www.inkscape.org/namespaces/inkscape"
   width="0.59055257in"
   height="0.78742653in"
   viewBox="0 0 42.519803 56.694998"
   xml:space="preserve"
   class="st3"
   version="1.1"
   id="svg24"
   sodipodi:docname="API Management Identity.svg"
   style="font-size:12px;overflow:visible;color-interpolation-filters:sRGB;fill:none;fill-rule:evenodd;stroke-linecap:square;stroke-miterlimit:3"
   inkscape:version="0.92.5 (2060ec1f9f, 2020-04-08)"><metadata
   id="metadata30"><rdf:RDF><cc:Work
       rdf:about=""><dc:format>image/svg+xml</dc:format><dc:type
         rdf:resource="http://purl.org/dc/dcmitype/StillImage" /></cc:Work></rdf:RDF></metadata><defs
   id="defs28" /><sodipodi:namedview
   pagecolor="#ffffff"
   bordercolor="#666666"
   borderopacity="1"
   objecttolerance="10"
   gridtolerance="10"
   guidetolerance="10"
   inkscape:pageopacity="0"
   inkscape:pageshadow="2"
   inkscape:window-width="640"
   inkscape:window-height="480"
   id="namedview26"
   showgrid="false"
   inkscape:zoom="1.7193066"
   inkscape:cx="28.346323"
   inkscape:cy="23.279613"
   inkscape:window-x="0"
   inkscape:window-y="0"
   inkscape:window-maximized="0"
   inkscape:current-layer="svg24" />
	<style
   type="text/css"
   id="style2">
	<![CDATA[
		.st1 {fill:#7fb900;stroke:none;stroke-linecap:butt;stroke-width:12.24}
		.st2 {fill:#b7d332;fill-opacity:0.4;stroke:none;stroke-linecap:butt;stroke-width:12.24}
		.st3 {fill:none;fill-rule:evenodd;font-size:12px;overflow:visible;stroke-linecap:square;stroke-miterlimit:3}
	]]>
	</style>

	<g
   id="g22"
   transform="translate(-12.240156,-12.2393)">
		<title
   id="title4">Page-1</title>
		<g
   id="group10278-1"
   transform="translate(12.24,-34.0157)">
			<title
   id="title6">API Management Identity</title>
			<g
   id="group10279-2">
				<title
   id="title8">Sheet.10279</title>
				<g
   id="shape10280-3">
					<title
   id="title10">Sheet.10280</title>
					<path
   d="m 36.31,53.06 c -12.64,-1.36 -15.05,-6.8 -15.05,-6.8 0,0 -2.87,7.14 -21.26,7.14 v 29.03 c 0,3.51 2.3,6.8 5.06,9.63 6.2,6.47 16.43,10.89 16.43,10.89 0,0 21.03,-9.07 21.03,-20.52 V 53.4 c -2.3,0 -4.37,-0.11 -6.21,-0.34 z"
   class="st1"
   id="path12"
   inkscape:connector-curvature="0"
   style="fill:#7fb900;stroke:none;stroke-width:12.23999977;stroke-linecap:butt" />
				</g>
				<g
   id="shape10281-5"
   transform="translate(0,-10.885)">
					<title
   id="title15">Sheet.10281</title>
					<path
   d="m 26.89,75.96 9.54,-12.02 c -12.64,-1.36 -15.06,-6.8 -15.06,-6.8 0,0 -2.98,7.14 -21.37,7.14 v 29.03 c 0,3.52 2.3,6.8 5.06,9.64 L 12.3,94.1 Z"
   class="st2"
   id="path17"
   inkscape:connector-curvature="0"
   style="fill:#b7d332;fill-opacity:0.4;stroke:none;stroke-width:12.23999977;stroke-linecap:butt" />
				</g>
			</g>
		</g>
	</g>
</svg>

<?xml version="1.0" encoding="UTF-8" standalone="no"?>
<!DOCTYPE svg PUBLIC "-//W3C//DTD SVG 1.1//EN" "http://www.w3.org/Graphics/SVG/1.1/DTD/svg11.dtd">
<!-- Generated by Microsoft Visio, SVG Export API Management Identity.svg Page-1 -->
<svg xmlns="http://www.w3.org/2000/svg" xmlns:xlink="http://www.w3.org/1999/xlink" xmlns:ev="http://www.w3.org/2001/xml-events"
		width="0.930551in" height="1.42984in" viewBox="0 0 66.9997 102.949" xml:space="preserve" color-interpolation-filters="sRGB"
		class="st3">
	<style type="text/css">
	<![CDATA[
		.st1 {fill:#7fb900;stroke:none;stroke-linecap:butt;stroke-width:12.24}
		.st2 {fill:#b7d332;fill-opacity:0.4;stroke:none;stroke-linecap:butt;stroke-width:12.24}
		.st3 {fill:none;fill-rule:evenodd;font-size:12px;overflow:visible;stroke-linecap:square;stroke-miterlimit:3}
	]]>
	</style>

	<g>
		<title>Page-1</title>
		<g id="group10047-1" transform="translate(12.24,-34.0157)">
			<title>API Management Identity</title>
			<g id="group10048-2">
				<title>Sheet.10048</title>
				<g id="shape10049-3">
					<title>Sheet.10049</title>
					<path d="M36.31 53.06 C23.67 51.7 21.26 46.26 21.26 46.26 C21.26 46.26 18.39 53.4 0 53.4 L0 82.43 C0 85.94 2.3
								 89.23 5.06 92.06 C11.26 98.53 21.49 102.95 21.49 102.95 C21.49 102.95 42.52 93.88 42.52 82.43 L42.52
								 53.4 C40.22 53.4 38.15 53.29 36.31 53.06 Z" class="st1"/>
				</g>
				<g id="shape10050-5" transform="translate(0,-10.885)">
					<title>Sheet.10050</title>
					<path d="M26.89 75.96 L36.43 63.94 C23.79 62.58 21.37 57.14 21.37 57.14 C21.37 57.14 18.39 64.28 0 64.28 L0 93.31
								 C0 96.83 2.3 100.11 5.06 102.95 L12.3 94.1 L26.89 75.96 Z" class="st2"/>
				</g>
			</g>
		</g>
	</g>
</svg>
